X:154
T:Tobin's Favourite
Z: id:dc-jig-129
M:6/8
L:1/8
K:D Major
DFA dcd|ecA cde|f3 g3|ecA GFE|!
DFA dcd|ecA cde|f3 g3|edc d3:|!
faa agf|efg efg|f3 g3|ecA GFE|!
DFA dcd|ecA cde|f3 g3|edc d3:|!